X:1
T:Scotch Mary
L:1/8
M:2/2
I:linebreak $
K:D
V:1 treble 
V:1
 cE E2 cded | cE E2 G2 AB | cE E2 cded |1 cABG A3 B :|2 cABG A2 cd |: eaaf gfed |$ cdef g2 fg |1 %7
 eaag efed | cABG A2 Bd :|2 afge fded | cABG A3 B || %11
